icons/folder-filled.svg

<svg xmlns="http://www.w3.org/2000/svg" width="24" height="24" viewBox="0 0 24 24">
    <path fill="#3A3A47" fill-rule="evenodd" d="M4 22c-2 0-2-2-2-2V4c0-2 2-2 2-2h5l3 2h8c2 0 2 2 2 2v14s0 2-2 2H4z"/>
</svg>

<svg width="24" height="24" viewBox="0 0 24 24" fill="none" xmlns="http://www.w3.org/2000/svg">
<path fill-rule="evenodd" clip-rule="evenodd" d="M4 22C2 22 2 20 2 20V4C2 2 4 2 4 2H9L12 4H20C22 4 22 6 22 6V20C22 20 22 22 20 22H4Z" fill="#3A3A47"/>
</svg>
